src/assets/projects/icon-time.svg

<svg fill="none" height="16" viewBox="0 0 16 16" width="16" xmlns="http://www.w3.org/2000/svg"><g fill="#777"><path d="m3.85721 2.19098c-2.62438 1.97445-4.438968 5.12772-3.685322 8.60502.837602 3.7721 4.467032 5.3929 7.845052 5.1866 1.64713-.1178 3.43386-.4126 4.91356-1.2671 1.5075-.8841 2.2055-2.387 2.5963-4.0962.8376-3.62471-.0837-7.04321-3.2386-8.98818-2.76392-1.6798629-8.51505-2.94694-10.24598.8545-.39085.85451.80953 1.59124 1.20039.73673 1.50749-3.330084 7.39839-1.38505 9.38059.47156 1.34 1.23771 1.9542 2.91752 1.8426 4.77398-.1396 1.82701-.6142 4.00781-2.2335 4.98041-2.68025 1.5912-7.25876 1.7682-9.52014-.6778-2.7359494-2.9175-.89349-7.27891 1.84266-9.31229.75424-.53034.05628-1.82705-.69756-1.26708z"/><path d="m6.3449 4.43209c.08374 1.14931.16748 2.32798.25122 3.47728.05589.64832-.08374 1.70922.44673 2.21023.5305.5303 1.47967.2358 2.09388.1474 1.08877-.1178 2.20547-.2064 3.29427-.32421.8935-.0884.8935-1.56188 0-1.47347-.7539.05899-1.5075.14739-2.2613.20638-.30715.0294-2.06605.41256-2.26138.20639.13963.11779.11159-.70732.11159-.79573-.02785-.35356-.05589-.73673-.08374-1.09031-.05589-.88413-.13963-1.73864-.19552-2.62277-.08355-.85472-1.47947-.88413-1.39572.05879z"/></g></svg>

<svg width="16" height="16" viewBox="0 0 16 16" fill="none" xmlns="http://www.w3.org/2000/svg">
<path d="M3.85721 2.19098C1.23283 4.16543 -0.581758 7.3187 0.171888 10.796C1.00949 14.5681 4.63892 16.1889 8.01694 15.9826C9.66407 15.8648 11.4508 15.57 12.9305 14.7155C14.438 13.8314 15.136 12.3285 15.5268 10.6193C16.3644 6.99459 15.4431 3.57609 12.2882 1.63112C9.52428 -0.0487429 3.77315 -1.31582 2.04222 2.48562C1.65137 3.34013 2.85175 4.07686 3.24261 3.22235C4.7501 -0.107734 10.641 1.8373 12.6232 3.69391C13.9632 4.93162 14.5774 6.61143 14.4658 8.46789C14.3262 10.2949 13.8516 12.4757 12.2323 13.4483C9.55205 15.0395 4.97354 15.2165 2.71216 12.7705C-0.0237894 9.853 1.81867 5.49159 4.55482 3.45821C5.30906 2.92787 4.6111 1.63116 3.85726 2.19113L3.85721 2.19098Z" fill="#777777"/>
<path d="M6.3449 4.43209C6.42864 5.5814 6.51238 6.76007 6.59612 7.90937C6.65201 8.55769 6.51238 9.61859 7.04285 10.1196C7.57335 10.6499 8.52252 10.3554 9.13673 10.267C10.2255 10.1492 11.3422 10.0606 12.431 9.94279C13.3245 9.85439 13.3245 8.38091 12.431 8.46932C11.6771 8.52831 10.9235 8.61671 10.1697 8.6757C9.86255 8.7051 8.10365 9.08826 7.90832 8.88209C8.04795 8.99988 8.01991 8.17477 8.01991 8.08636C7.99206 7.7328 7.96402 7.34963 7.93617 6.99605C7.88028 6.11192 7.79654 5.25741 7.74065 4.37328C7.6571 3.51856 6.26118 3.48915 6.34493 4.43207L6.3449 4.43209Z" fill="#777777"/>
</svg>
